X:1
T:Trusting in the Promise
T:Trusting in the Promise
T:Edmund Simon Lorenz
T:Henry Burns Hartzler, 1878
T:Public Domain Courtesy of the Cyber Hymnal™
T:Public Domain Courtesy of the Cyber Hymnal™
C:Edmund Simon Lorenz
Z:Public Domain
Z:Courtesy of the Cyber Hymnal™
%%score ( 1 2 ) ( 3 4 )
L:1/8
Q:1/4=100
M:4/4
K:F
V:1 treble 
V:2 treble 
V:3 bass 
V:4 bass 
V:1
 F>G | A2 c2 c2 A>G | F2 D2 C4 | [FA][FA][FA][FA] [FA][EG]F[FA] | [EG]4 F2 F>[EG] | %5
w: 1.~I have|found re- pose for my|wea- ry soul,|Trust- ing in the prom- ise of the|Sav- ior; And a|
w: 2.~I will|sing my song as the|days go by,|Trust- ing in the prom- ise of the|Sav- ior; And re-|
w: 3.~O, the|peace and joy of the|life I live,|Trust- ing in the prom- ise of the|Sav- ior; O, the|
 [FA]2 [Ac]2 [Ac]2 [FA]>[EG] | [DF]2 [B,D]2 [A,C]4 | [FA][FA][FA][FA] [FA][EG]F[FA] | %8
w: har- bor safe when the|bil- lows roll,|Trust- ing in the prom- ise of the|
w: joice in hope, while I|live or die,|Trust- ing in the prom- ise of the|
w: strength and grace on- ly|God can give,|Trust- ing in the prom- ise of the|
 [EG]4 F2 [Fc]>[Fc] | [Fd]2 [Fd]2 [Fd]2 [FB]>[Fd] | [Af]2 [Bd]2 [Ac]4 | %11
w: Sav- ior. I will|fear no foe in the|dead- ly strife,|
w: Sav- ior. I can|smile at grief and a-|bide in pain,|
w: Sav- ior. Who- so-|ev- er will may be|saved to- day,|
 [FA][FA][FA][FA] [FA][EG]F[FA] | [EG]4 F2 [Fc]>[Fc] | [Fd]2 [Fd]2 [Fd]2 [FB]>[Fd] | %14
w: Trust- ing in the prom- ise of the|Sav- ior; I will|bear my lot in the|
w: Trust- ing in the prom- ise of the|Sav- ior; And the|loss of all shall be|
w: Trust- ing in the prom- ise of the|Sav- ior; And be-|gin to walk in the|
 [Af]2 [Bd]2 [Ac]4 | [FA][FA][FA][FA] [FA][EG]F[FA] | [EG]4 F2 z2 || %17
w: toil of life,|Trust- ing in the prom- ise of the|Sav- ior.|
w: high- est gain,|Trust- ing in the prom- ise of the|Sav- ior.|
w: ho- ly way,|Trust- ing in the prom- ise of the|Sav- ior.|
"^Refrain" [Fc][Fc][Fc][Fc] [Fc][FA][EB][Fc] | [Fd]4 [Fd]4 | [Fc][Fc][Fc][Fc] [Fc][FA][EG]F | %20
w: |||
w: Rest- ing on His might- y arm for-|ev- er,|Ne- ver from His lov- ing heart to|
w: |||
 [EG]4 [EG]2 F>[EG] | [FA]2 [Ac]2 [Ac]2 [FA]>[EG] | [DF]2 [B,D]2 [A,C]4 | %23
w: |||
w: se- ver. I will|rest by grace in His|strong em- brace,|
w: |||
 [FA][FA][FA][FA] [FA][EG]F[FA] | [EG]4 F2 |] %25
w: ||
w: Trust- ing in the prom- ise of the|Sav- ior.|
w: ||
V:2
 x2 | x8 | x8 | x6 F x | x4 F2 F3/2 x/ | x8 | x8 | x6 F x | x4 F2 x2 | x8 | x8 | x6 F x | %12
 x4 F2 x2 | x8 | x8 | x6 F x | x4 F2 x2 || x8 | x8 | x7 F | x6 F3/2 x/ | x8 | x8 | x6 F x | %24
 x4 F2 |] %25
V:3
 z2 | [F,A,C]2 z2 [F,A,C]2 z2 | [F,B,D]2 z2 [F,A,]2 z2 | %3
 [F,C][F,C][F,C][F,C] [F,C][F,B,][F,A,][F,C] | [C,B,]4 [F,A,]2 z2 | [F,A,C]2 z2 [F,A,C]2 z2 | %6
 [F,B,]2 z2 [F,,F,]4 | [F,C][F,C][F,C][F,C] [F,C][F,B,][F,A,][F,C] | %8
 [C,B,]4 [F,A,]2 [F,A,]>[F,A,] | B,2 B,2 B,2 [B,D]>B, | [F,C]2 [F,F]2 [F,F]4 | %11
 [F,C][F,C][F,C][F,C] [F,C][F,B,][F,A,][F,B,] | [C,B,]4 [F,A,]2 [F,A,]>[F,A,] | %13
 B,2 B,2 B,2 [B,D]>B, | [F,C]2 [F,F]2 [F,F]4 | [F,C][F,C][F,C][F,C] [F,C][F,B,][F,A,][F,C] | %16
 [C,B,]4 [F,A,]2 z2 || [F,A,][F,A,][F,A,][F,A,] [F,A,][F,C][G,C][A,C] | B,4 B,4 | %19
 [F,A,][F,A,][F,A,][F,A,] [F,A,][F,C][F,B,][F,A,] | [C,C]4 [C,C]2 z2 | [F,A,C]2 z2 [F,A,C]2 z2 | %22
 [F,B,]2 z2 [F,,F,]4 | [F,C][F,C][F,C][F,C] [F,C][F,B,][F,A,][F,C] | [C,B,]4 [F,A,]2 |] %25
V:4
 x2 | x8 | x8 | x8 | x8 | x8 | x8 | x8 | x8 | B,2 B,2 B,2 B,/ x3/2 | x8 | x8 | x8 | %13
 B,2 B,2 B,2 B,/ x3/2 | x8 | x8 | x8 || x8 | B,4 B,4 | x8 | x8 | x8 | x8 | x8 | x6 |] %25

